X:95
T:???
M:4/4
L:1/8
S:Tara Diamond
R:Reel
K:D
B2BA B2ed|BdAd BE~E2|BAGA Bdef|gfed Bded|
B2BA B2ed|BdAd BE~E2|BAGA Bdef|gfed Bdef|
~g3f dB~B2|dg~g2 Bdef|~g3a bgaf|gfed Bdef|
~g3f dB~B2|dg~g2 Bdef|~g3a bgaf|gfed Bded|


